assets/icons/filters.svg

<svg width="19" height="18" viewBox="0 0 19 18" fill="none" xmlns="http://www.w3.org/2000/svg">
<g opacity="0.3">
<path fill-rule="evenodd" clip-rule="evenodd" d="M2.38013 5.25049C2.38013 4.83628 2.71592 4.50049 3.13013 4.50049H5.38013C5.79434 4.50049 6.13013 4.83628 6.13013 5.25049C6.13013 5.6647 5.79434 6.00049 5.38013 6.00049H3.13013C2.71592 6.00049 2.38013 5.6647 2.38013 5.25049Z" fill="white"/>
<path fill-rule="evenodd" clip-rule="evenodd" d="M2.38013 12.7505C2.38013 12.3363 2.71592 12.0005 3.13013 12.0005H7.63013C8.04434 12.0005 8.38013 12.3363 8.38013 12.7505C8.38013 13.1647 8.04434 13.5005 7.63013 13.5005H3.13013C2.71592 13.5005 2.38013 13.1647 2.38013 12.7505Z" fill="white"/>
<path fill-rule="evenodd" clip-rule="evenodd" d="M13.6301 12.7505C13.6301 12.3363 13.9659 12.0005 14.3801 12.0005H16.6301C17.0444 12.0005 17.3801 12.3363 17.3801 12.7505C17.3801 13.1647 17.0444 13.5005 16.6301 13.5005H14.3801C13.9659 13.5005 13.6301 13.1647 13.6301 12.7505Z" fill="white"/>
<path fill-rule="evenodd" clip-rule="evenodd" d="M11.3801 5.25049C11.3801 4.83628 11.7159 4.50049 12.1301 4.50049H16.6301C17.0444 4.50049 17.3801 4.83628 17.3801 5.25049C17.3801 5.66471 17.0444 6.00049 16.6301 6.00049H12.1301C11.7159 6.00049 11.3801 5.6647 11.3801 5.25049Z" fill="white"/>
<path fill-rule="evenodd" clip-rule="evenodd" d="M7.61119 2.43799H7.64907C7.98241 2.43798 8.26069 2.43798 8.48918 2.45357C8.727 2.4698 8.95163 2.50478 9.16943 2.59499C9.67478 2.80432 10.0763 3.20583 10.2857 3.7112C10.3759 3.929 10.4108 4.15364 10.427 4.39147C10.4426 4.61993 10.4426 4.8982 10.4426 5.23154V5.26943C10.4426 5.60278 10.4426 5.88105 10.427 6.10952C10.4108 6.34734 10.3759 6.57198 10.2857 6.78977C10.0763 7.29515 9.67478 7.69669 9.16943 7.90601C8.95163 7.99624 8.727 8.03119 8.48918 8.04739C8.26069 8.06299 7.98242 8.06299 7.64907 8.06299H7.61118C7.27784 8.06299 6.99956 8.06299 6.77111 8.04739C6.53328 8.03119 6.30863 7.99624 6.09084 7.90601C5.58547 7.69669 5.18396 7.29515 4.97462 6.78977C4.88441 6.57198 4.84943 6.34734 4.8332 6.10952C4.81762 5.88105 4.81762 5.60277 4.81763 5.26943V5.23155C4.81762 4.89821 4.81762 4.61993 4.8332 4.39147C4.84943 4.15364 4.88441 3.929 4.97462 3.7112C5.18396 3.20583 5.58547 2.80432 6.09084 2.59499C6.30863 2.50478 6.53328 2.4698 6.77111 2.45357C6.99956 2.43798 7.27784 2.43798 7.61119 2.43799Z" fill="white"/>
<path fill-rule="evenodd" clip-rule="evenodd" d="M12.1112 9.93799H12.1491C12.4824 9.93799 12.7607 9.93799 12.9892 9.95359C13.227 9.96979 13.4516 10.0047 13.6694 10.095C14.1748 10.3043 14.5763 10.7058 14.7857 11.2112C14.8759 11.429 14.9108 11.6536 14.927 11.8914C14.9426 12.1199 14.9426 12.3982 14.9426 12.7315V12.7695C14.9426 13.1028 14.9426 13.3811 14.927 13.6095C14.9108 13.8474 14.8759 14.072 14.7857 14.2898C14.5763 14.7951 14.1748 15.1967 13.6694 15.406C13.4516 15.4962 13.227 15.5312 12.9892 15.5474C12.7607 15.563 12.4824 15.563 12.1491 15.563H12.1112C11.7779 15.563 11.4995 15.563 11.2711 15.5474C11.0333 15.5312 10.8086 15.4962 10.5908 15.406C10.0855 15.1967 9.68393 14.7951 9.4746 14.2898C9.38438 14.072 9.34943 13.8474 9.33323 13.6095C9.31763 13.3811 9.31763 13.1028 9.31763 12.7695V12.7315C9.31763 12.3982 9.31763 12.1199 9.33323 11.8914C9.34943 11.6536 9.38438 11.429 9.4746 11.2112C9.68393 10.7058 10.0855 10.3043 10.5908 10.095C10.8086 10.0047 11.0333 9.96979 11.2711 9.95359C11.4995 9.93799 11.7779 9.93799 12.1112 9.93799Z" fill="white"/>
</g>
</svg>

<svg xmlns="http://www.w3.org/2000/svg" width="19" height="18" fill="none" viewBox="0 0 19 18"><g fill="#fff" fill-rule="evenodd" clip-rule="evenodd" opacity=".3"><path d="M2.38 5.25a.75.75 0 0 1 .75-.75h2.25a.75.75 0 0 1 0 1.5H3.13a.75.75 0 0 1-.75-.75m0 7.5a.75.75 0 0 1 .75-.75h4.5a.75.75 0 0 1 0 1.5h-4.5a.75.75 0 0 1-.75-.75m11.25 0a.75.75 0 0 1 .75-.75h2.25a.75.75 0 1 1 0 1.5h-2.25a.75.75 0 0 1-.75-.75m-2.25-7.5a.75.75 0 0 1 .75-.75h4.5a.75.75 0 1 1 0 1.5h-4.5a.75.75 0 0 1-.75-.75"/><path d="M7.611 2.438h.038c.333 0 .612 0 .84.016.238.016.463.05.68.141.506.21.907.61 1.117 1.116.09.218.125.443.141.68.016.229.016.507.016.84v.038c0 .334 0 .612-.016.84a2.1 2.1 0 0 1-.141.68c-.21.506-.611.908-1.117 1.117a2.1 2.1 0 0 1-.68.141c-.228.016-.507.016-.84.016h-.038c-.333 0-.611 0-.84-.016a2.1 2.1 0 0 1-.68-.141A2.06 2.06 0 0 1 4.975 6.79a2.1 2.1 0 0 1-.142-.68 13 13 0 0 1-.015-.84v-.038c0-.334 0-.612.015-.84.016-.238.051-.463.142-.68.209-.506.61-.908 1.116-1.117.218-.09.442-.125.68-.141.229-.016.507-.016.84-.016m4.5 7.5h.038c.333 0 .612 0 .84.016.238.016.463.05.68.141.506.21.907.61 1.117 1.116.09.218.125.443.141.68.016.229.016.507.016.84v.039c0 .333 0 .611-.016.84a2.1 2.1 0 0 1-.141.68c-.21.505-.611.907-1.117 1.116a2.1 2.1 0 0 1-.68.141c-.228.016-.507.016-.84.016h-.038c-.333 0-.612 0-.84-.016a2.1 2.1 0 0 1-.68-.141 2.06 2.06 0 0 1-1.116-1.116 2.1 2.1 0 0 1-.142-.68c-.015-.229-.015-.507-.015-.84v-.038c0-.334 0-.612.015-.84.016-.238.051-.463.142-.68.209-.506.61-.908 1.116-1.117.218-.09.442-.125.68-.141.228-.016.507-.016.84-.016"/></g></svg>
